brandFactory_export/2.Regular/Fonendoescopio medico _2Regular.svg

<?xml version="1.0" encoding="UTF-8"?>
<svg width="24px" height="24px" viewBox="0 0 24 24" version="1.1" xmlns="http://www.w3.org/2000/svg" xmlns:xlink="http://www.w3.org/1999/xlink">
    <title>2.Regular/Fonendoescopio medico _2Regular</title>
    <g id="Symbols" stroke="none" stroke-width="1" fill="none" fill-rule="evenodd">
        <g id="2.Regular/Fonendoescopio-medico-_2Regular" fill="#5CB615" fill-rule="nonzero">
            <path d="M21.0117647,14.8739496 C21.7613445,14.8605042 22.1411765,14.4605042 22.1411765,13.687395 C22.1411765,12.9109244 21.7579832,12.507563 20.9983193,12.4941176 L20.8336134,12.4907563 C19.7277311,12.5042017 19.7277311,13.3848739 19.7277311,13.6773109 C19.7277311,14.4638655 20.107563,14.8638655 20.8537815,14.8773109 C20.8571429,14.8739496 21.0117647,14.8739496 21.0117647,14.8739496 L21.0117647,14.8739496 Z M6.28571429,14.8 C6.14453782,14.8 6.01344538,14.789916 5.87563025,14.7831933 L5.87563025,15.5462185 L6.79663866,15.5462185 L6.79663866,14.7798319 C6.63193277,14.789916 6.46386555,14.8 6.28571429,14.8 L6.28571429,14.8 Z M1.50252101,8.47731092 C1.70084034,11.7445378 3.27058824,13.3344538 6.28907563,13.3344538 C9.30420168,13.3344538 10.8705882,11.7445378 11.0722689,8.47731092 L10.5613445,8.47731092 C10.3260504,11.1327731 8.76302521,12.692437 6.28907563,12.692437 C3.81176471,12.692437 2.25210084,11.1327731 2.01344538,8.47731092 L1.50252101,8.47731092 Z M21.7747899,11.1394958 C22.7394958,11.4016807 23.6235294,12.1579832 23.6235294,13.6840336 C23.6235294,15.6067227 22.2319328,16.3159664 21.0386555,16.3361345 L20.8369748,16.3361345 C19.6436975,16.3193277 18.2521008,15.610084 18.2521008,13.6739496 C18.2521008,12.0201681 19.2605042,11.2705882 20.2957983,11.0789916 L20.2957983,8.99495798 C20.2957983,7.02857143 18.9042017,6.70252101 18.0739496,6.68235294 L17.8084034,6.6789916 C16.994958,6.68571429 15.6336134,6.99495798 15.6336134,8.97815126 L15.6369748,9.06890756 L15.6369748,18.6621849 C15.6369748,22.2554622 13.0453782,23.5798319 10.8235294,23.6201681 C10.7361345,23.6201681 10.6352941,23.6235294 10.5344538,23.6235294 L10.4067227,23.6235294 C8.07731092,23.589916 5.58991597,22.2621849 5.58991597,18.6386555 L5.58991597,17.0084034 L5.27731092,17.0084034 C4.79327731,17.0084034 4.39663866,16.5848739 4.39663866,16.0605042 L4.39663866,14.5781513 C1.54621849,13.8890756 0,11.5260504 0,7.74453782 C0,7.34117647 0.332773109,7.01176471 0.739495798,7.01176471 L0.957983193,7.01176471 L0.957983193,3.19327731 C0.954621849,3.05546218 0.927731092,1.61344538 1.76134454,0.766386555 C2.13445378,0.383193277 2.62521008,0.181512605 3.18319328,0.171428571 C3.39831933,0.0235294118 3.64705882,0 3.7512605,0 L3.84201681,0 C4.03361345,0.00336134454 4.77310924,0.0806722689 4.77310924,0.964705882 C4.77310924,1.85210084 4.0302521,1.91932773 3.84537815,1.92268908 L3.75798319,1.92268908 C3.63697479,1.92268908 3.30756303,1.89243697 3.07563025,1.6605042 C2.98151261,1.67394958 2.8907563,1.7210084 2.82352941,1.78823529 C2.50756303,2.10756303 2.4302521,2.85714286 2.43697479,3.1697479 L2.43697479,7.01512605 L2.72268908,7.01512605 C3.13277311,7.01512605 3.46218487,7.34453782 3.46218487,7.74789916 C3.46218487,10.0605042 4.41344538,11.2336134 6.28571429,11.2336134 C8.15798319,11.2336134 9.1092437,10.0605042 9.1092437,7.74789916 C9.1092437,7.34453782 9.44201681,7.01512605 9.8487395,7.01512605 L10.1546218,7.01512605 L10.1546218,3.19327731 C10.1613445,2.9210084 10.1042017,2.12436975 9.76806723,1.78487395 C9.67205745,1.68886301 9.54076951,1.63659096 9.40504202,1.64033613 C9.17310924,1.88907563 8.83361345,1.92268908 8.7092437,1.92268908 L8.62184874,1.92268908 C8.43697479,1.91932773 7.69747899,1.8487395 7.69747899,0.964705882 C7.69747899,0.0806722689 8.43697479,0.00672268908 8.62521008,0.00336134454 L8.71596639,0.00336134454 C8.82016807,0.00336134454 9.0789916,0.0302521008 9.29747899,0.188235294 C9.32436975,0.18487395 9.34789916,0.171428571 9.37478992,0.171428571 C9.94621849,0.171428571 10.4537815,0.376470588 10.8369748,0.769747899 C11.6672269,1.61680672 11.6436975,3.05882353 11.6369748,3.22016807 L11.6369748,7.01512605 L11.8319328,7.01512605 C12.2420168,7.01512605 12.5714286,7.34453782 12.5714286,7.74789916 C12.5714286,11.4823529 11.0655462,13.8386555 8.2789916,14.5579832 L8.2789916,16.0638655 C8.2789916,16.5882353 7.88571429,17.0117647 7.39831933,17.0117647 L7.06554622,17.0117647 L7.06554622,18.6352941 C7.06554622,21.7714286 9.41512605,22.1411765 10.4235294,22.1579832 C10.5478992,22.1613445 10.6823529,22.1579832 10.7932773,22.1546218 C11.8016807,22.1344538 14.1512605,21.7579832 14.1512605,18.6588235 L14.1512605,8.99159664 C14.1512605,6.22521008 16.1142857,5.2302521 17.7915966,5.21344538 C17.892437,5.21344538 18.010084,5.21344538 18.107563,5.21680672 C19.7983193,5.25714286 21.7747899,6.26890756 21.7747899,8.99495798 L21.7747899,11.1394958 Z M21.0218487,13.1294118 C21.1226891,13.1327731 21.5092437,13.1731092 21.5092437,13.6369748 C21.5092437,14.1008403 21.1193277,14.1378151 21.0218487,14.1411765 L20.9747899,14.1411765 C20.8705882,14.1411765 20.487395,14.1042017 20.487395,13.6336134 C20.487395,13.1663866 20.8672269,13.1327731 20.9680672,13.1327731 L21.0218487,13.1294118 L21.0218487,13.1294118 Z" id="Fonendoescopio-medico-_2Regular"></path>
        </g>
    </g>
</svg>

<svg width="24" height="24" viewBox="0 0 24 24" xmlns="http://www.w3.org/2000/svg"><path d="M21.012 14.874c.75-.013 1.13-.413 1.13-1.187 0-.776-.384-1.18-1.144-1.193l-.164-.003c-1.106.013-1.106.894-1.106 1.186 0 .787.38 1.187 1.126 1.2.003-.003.158-.003.158-.003zM6.286 14.8c-.141 0-.273-.01-.41-.017v.763h.92v-.766c-.164.01-.332.02-.51.02zM1.503 8.477c.198 3.268 1.768 4.857 4.786 4.857 3.015 0 4.582-1.59 4.783-4.857h-.51c-.236 2.656-1.799 4.215-4.273 4.215-2.477 0-4.037-1.56-4.276-4.215h-.51zm20.272 2.662c.964.263 1.849 1.019 1.849 2.545 0 1.923-1.392 2.632-2.585 2.652h-.202c-1.193-.017-2.585-.726-2.585-2.662 0-1.654 1.009-2.403 2.044-2.595V8.995c0-1.966-1.392-2.292-2.222-2.313l-.266-.003c-.813.007-2.174.316-2.174 2.3l.003.09v9.593c0 3.593-2.592 4.918-4.813 4.958-.088 0-.189.004-.29.004h-.127c-2.33-.034-4.817-1.362-4.817-4.985v-1.63h-.313c-.484 0-.88-.424-.88-.948v-1.483C1.547 13.89 0 11.526 0 7.745c0-.404.333-.733.74-.733h.218V3.193c-.003-.138-.03-1.58.803-2.427.373-.383.864-.584 1.422-.595C3.398.024 3.647 0 3.751 0h.091c.192.003.931.08.931.965 0 .887-.743.954-.928.958h-.087c-.121 0-.45-.03-.682-.262a.454.454 0 00-.252.127c-.316.32-.394 1.07-.387 1.382v3.845h.286c.41 0 .74.33.74.733 0 2.313.95 3.486 2.823 3.486 1.872 0 2.823-1.173 2.823-3.486 0-.403.333-.733.74-.733h.306V3.193c.006-.272-.05-1.069-.387-1.408a.494.494 0 00-.363-.145c-.232.25-.571.283-.696.283h-.087c-.185-.004-.925-.074-.925-.958s.74-.958.928-.962h.091c.104 0 .363.027.581.185.027-.003.05-.017.078-.017.571 0 1.079.205 1.462.599.83.847.807 2.289.8 2.45v3.795h.195c.41 0 .74.33.74.733 0 3.734-1.506 6.09-4.293 6.81v1.506c0 .524-.393.948-.88.948h-.333v1.623c0 3.136 2.35 3.506 3.358 3.523.124.003.258 0 .37-.003 1.008-.02 3.357-.397 3.357-3.496V8.992c0-2.767 1.963-3.762 3.64-3.779.101 0 .22 0 .317.004 1.69.04 3.667 1.052 3.667 3.778v2.144zm-.753 1.99c.1.004.487.044.487.508s-.39.5-.487.504h-.047c-.104 0-.488-.037-.488-.507 0-.468.38-.501.481-.501l.054-.004z" fill="#5CB615" fill-rule="nonzero"/></svg>
